X: 4
T: The Morpeth Rant
R: reel
M: 4/4
L: 1/8
K: Gmaj
|:DF|G2DB, G,B,DB,|G,CEC G,B,DG|B2AB cBAG|F2A2 AcBA|G2DB, G,B,DB,|G,CEC G,B,DG|B2AB cBAG|D2G2 G2:||:Bd|gfed B2GB|cBAG F2D2|E2CE cBAG|F2D2 D2GF|E2CE cBAG|F2DF dcBA|Ggfg ecAF|A2G2 G2:|


Tune 1310	Setting 22070

